X:6
T:West Mabou
R:Reel
O:Cape Breton
M:2/2
C:Trad.-Ashley MacIsaac, Buddy MacMaster
K:G
e|g2 dg e2 dB|g2 dg eaab|g2 dg e2 dB|A2 GA BGGe|
g2 dg e2 db|g2 dg eaag|bgaf gfed|efga babg|
eddB dedB|A2 GA BAAg|eddB dedB|A2 GA BGGg|
eddB dedB|A2 GA BAAe|g2 bg e2 dB|A2 GA BGG||

